X:1
T:Title
%%score { ( 1 3 4 ) | ( 2 5 ) }
L:1/8
M:4/4
K:Db
V:1 treble nm="Grand Piano"
V:3 treble 
V:4 treble 
V:2 bass 
V:5 bass 
V:1
 z4 z2[Q:1/4=100] [A,FA]>[A,EG] | [A,DF]>[=G,D_F] [A,D=F]>[A,EG] [DFA]>[D_F=G] [D=FA]>[DFA] | %2
 [DGB]>[DBd] [DBd]>[DGB] [DFA]2 [DFA]>[DGB] | [CFA]>[A,EG] [A,CE]>[A,DF] [CEG]>[DFA] [EAc]>[CGB] | %4
 [FA]6 [FA]>[EG] | F>_F =F>[EG] [FA]>[_F=G] [=FA]>[FA] | [GB]>[Bd] [Bd]>[GB] [FA]2 [FA]>[Fd] | %7
 c>B c>d e>d c>B |[M:3/4] [CA]6 |[M:1/4] B>c |[M:4/4] [Fd]6 z2 | [Gc]6 z2 | e6 z2 | [FA]6 z2 | %14
 [Af]6 z2 | [Gd]2 [GB]2 z4 | A2 A2 z2 c2 |[M:3/4] d6 |] %18
V:2
 z4 z2 D,>D, | D,>D, D,>D, D,>D, D,>D, | G,>G, G,>G, D,2 D,>D, | A,,>A,, A,,>A,, A,,>A,, A,,>A,, | %4
 [D,D]6 [D,D]>[D,D] | [D,A,D]>[D,=G,D] [D,A,D]>[D,A,] [D,D]>[D,D] [D,D]>[D,D] | %6
 [G,D]>[G,D] [G,D]>[G,D] [D,D]2 [D,D]>[D,A,] | %7
 [E,A,E]>[E,DE] [E,CE]>[E,B,E] [E,CE]>[E,B,E] [E,A,E]>[E,=G,D] |[M:3/4] [A,,A,]6 | %9
[M:1/4][K:treble] [A,CG]>[A,G] |[M:4/4][K:bass] [D,A,]>D, D,>D, z z/ D/ D,>D, | %11
 A,>A, A,>A, A,2[K:treble] [A,E]>[A,C] | [A,C]2 z2 z4[K:bass] | D,>D, D,>D, D,2 D,>[D,A,] | %14
 [D,D]>D, F,>A, D,>[D,A,] [F,A,]>[F,_C] | [G,B,]>G, G,>G, G,2 G,>[K:treble][G,DG] | %16
 [A,DF]>[A,D] [A,DF]>[A,D][K:bass] A,,2 A,,>A,, |[M:3/4] D,2 D,2 D,2 |] %18
V:3
 x8 | x8 | x8 | x8 | x8 | x8 | x8 | x8 |[M:3/4] x6 |[M:1/4] x2 | %10
[M:4/4] z z/ A,/ A,>A, z z/ F/ [DFA]>[DFd] | E>E E>E E2 G>E | z z/ C/ C>C C>[CGA] [CGB]>[EGA] | %13
 D>D D>D D2 [DFA]>[Fd] | z z/ D/ D>D D>[Fd] [Ae]>[Ad] | z z/ B,/ D>D [DBd]2 [DAc]>B | %16
 z z/ F/ z z/ F/ [CGB]2 [EG]>[EG] |[M:3/4] [DF]2 [B,G]2 [A,F]2 |] %18
V:4
 x8 | x8 | x8 | x8 | x8 | x8 | x8 | x8 |[M:3/4] x6 |[M:1/4] x2 |[M:4/4] z4 A,2 z2 | x8 | x8 | x8 | %14
 x8 | x8 | x8 |[M:3/4] x6 |] %18
V:5
 x8 | x8 | x8 | x8 | x8 | x8 | x8 | x8 |[M:3/4] x6 |[M:1/4][K:treble] x2 | %10
[M:4/4][K:bass] z4 D,2 z2 | x6[K:treble] x2 | G->[A,G-] [A,G-]>[A,G-] [A,G]>[K:bass]A, A,,>A,, | %13
 x8 | x8 | x15/2[K:treble] x/ | x4[K:bass] x4 |[M:3/4] x6 |] %18

